mapstyles/mapsforge_peruskartta/mml/SPete.svg

<?xml version="1.0" encoding="UTF-8" standalone="no"?>
<!-- Created with Inkscape (http://www.inkscape.org/) -->

<svg
   xmlns:dc="http://purl.org/dc/elements/1.1/"
   xmlns:cc="http://creativecommons.org/ns#"
   xmlns:rdf="http://www.w3.org/1999/02/22-rdf-syntax-ns#"
   xmlns:svg="http://www.w3.org/2000/svg"
   xmlns="http://www.w3.org/2000/svg"
   xmlns:sodipodi="http://sodipodi.sourceforge.net/DTD/sodipodi-0.dtd"
   xmlns:inkscape="http://www.inkscape.org/namespaces/inkscape"
   version="1.1"
   width="233"
   height="653"
   id="svg2"
   xml:space="preserve"
   inkscape:version="0.48.4 r9939"
   sodipodi:docname="SPete.svg"><sodipodi:namedview
     pagecolor="#ffffff"
     bordercolor="#666666"
     borderopacity="1"
     objecttolerance="10"
     gridtolerance="10"
     guidetolerance="10"
     inkscape:pageopacity="0"
     inkscape:pageshadow="2"
     inkscape:window-width="1920"
     inkscape:window-height="1012"
     id="namedview10"
     showgrid="false"
     inkscape:zoom="2.3570226"
     inkscape:cx="106.27846"
     inkscape:cy="537.18079"
     inkscape:window-x="-8"
     inkscape:window-y="-8"
     inkscape:window-maximized="1"
     inkscape:current-layer="svg2" /><metadata
     id="metadata8"><rdf:RDF><cc:Work
         rdf:about=""><dc:format>image/svg+xml</dc:format><dc:type
           rdf:resource="http://purl.org/dc/dcmitype/StillImage" /></cc:Work></rdf:RDF></metadata><defs
     id="defs6" /><g
     transform="matrix(1.25,0,0,-1.25,26.275,727.375)"
     id="g10"><g
       transform="scale(0.1,0.1)"
       id="g12"><path
         d="m -210,720 1860,0 m -930,1310 0,1190"
         inkscape:connector-curvature="0"
         id="path14"
         style="fill:none;stroke:#000000;stroke-width:250;stroke-linecap:butt;stroke-linejoin:miter;stroke-miterlimit:10;stroke-opacity:1;stroke-dasharray:none" /><path
         d="m -210,720 1860,0 m -930,1310 0,1190 -720,1250 720,0 -720,1250 1440,0 -720,-1250 720,0 -720,-1250 m -600,2350 1200,0 m -100,-150 -1000,0 m 100,-200 800,0 m -100,-200 -600,0 m 150,-200 300,0 m -750,-500 1200,0 m -100,-150 -1000,0 m 100,-200 800,0 m -100,-200 -600,0 m 150,-200 300,0 m 430,-2850 0,750"
         inkscape:connector-curvature="0"
         id="path16"
         style="fill:none;stroke:#000000;stroke-width:200;stroke-linecap:butt;stroke-linejoin:miter;stroke-miterlimit:10;stroke-opacity:1;stroke-dasharray:none" /><path
         d="m 1300,1470 c 0,309.28 -250.72,560 -560,560 -309.277,0 -560,-250.72 -560,-560 l 0,-750"
         inkscape:connector-curvature="0"
         id="path18"
         style="fill:none;stroke:#000000;stroke-width:200;stroke-linecap:butt;stroke-linejoin:miter;stroke-miterlimit:10;stroke-opacity:1;stroke-dasharray:none" /></g></g></svg>

<svg xmlns="http://www.w3.org/2000/svg" xml:space="preserve" width="233" height="653"><path d="M-210 720h1860M720 2030v1190" style="fill:none;stroke:#000;stroke-width:250;stroke-linecap:butt;stroke-linejoin:miter;stroke-miterlimit:10;stroke-opacity:1;stroke-dasharray:none" transform="matrix(.13 0 0 -.13 26.275 727.375)"/><path d="M-210 720h1860M720 2030v1190L0 4470h720L0 5720h1440L720 4470h720L720 3220M120 5570h1200m-100-150H220m100-200h800m-100-200H420m150-200h300m-750-500h1200m-100-150H220m100-200h800m-100-200H420m150-200h300m430-2850v750M1300 1470c0 309.28-250.72 560-560 560-309.277 0-560-250.72-560-560V720" style="fill:none;stroke:#000;stroke-width:200;stroke-linecap:butt;stroke-linejoin:miter;stroke-miterlimit:10;stroke-opacity:1;stroke-dasharray:none" transform="matrix(.13 0 0 -.13 26.275 727.375)"/></svg>
